X:61
T:Brumley Brae, The
R:reel
C:Willie Macpherson (1919-1974)
S:Kevin Finucane
Z:id:hn-reel-61
M:C|
K:D
d2cd AFDd|cdAF DEFD|~E3F GFED|EDEF GABc|
d2cd AFDd|cdAF DEFD|Efgf edcB|1 AGFE D3c:|2 AGFE D3a||
|:^gafd Aa^ga|fdAa ^gafa|eB~B2 bagf|edcB ABcA|
d2cd AFDd|cdAF DEFD|Efgf edcB|1 AGFE D3a:|2 AGFE D3c||
<end>
<start>
